X:1
T:The Grey Funnel Line
M:4/4
L:1/8
K:E
 EEE| B3 G/2G/2G/2-F/2 E| G3 EE E| B2 GE FG| F3 E/2E/2 EE| B3 G/2G/2G/2-F/2 E|\
 C3 E/2E/2 EC| B,2 G,B, CE| E3 EE C|
M:4/4
 B,3 E/2F/2 G2 G/2 F3/2| E4 z2 z4| z2 z4 z||
